X:1
T:Kindertotenlieder
T:Wenn dein Mütterlein
T:Kindertotenlieder
T:3. Wenn dein Mütterlein
T:Gustav Mahler
T:Friedrich Rückert (English words by John Bernhoff)
T:OpenScore (CC0)
T:OpenScore (CC0)
T:OpenScore (CC0)
T:OpenScore (CC0)
T:OpenScore (CC0)
T:OpenScore (CC0)
T:OpenScore (CC0)
T:OpenScore (CC0)
C:Gustav Mahler
Z:Friedrich Rückert
Z:OpenScore (CC0)
%%score 1 { ( 2 5 6 ) | ( 3 4 7 ) }
L:1/8
Q:1/4=52
M:4/4
K:Eb
V:1 treble nm="Gesang\nVoice"
V:2 treble nm="Piano"
V:5 treble 
V:6 treble 
V:3 bass 
V:4 bass 
V:7 bass 
V:1
"^Schwer, dumpf""^Grave, malincolico" z8 | z8 | z8 | z8 | z8 | z8 | z8 | %7
w: |||||||
w: |||||||
[M:3/2]!pp! G,2 C2 D2 G2 D4 | G,2 C2 D2 G2 D4 |[M:4/4] z8 | z8 |!mp! G2 G2 F2 F2 | E4 D4 | %13
w: Wenn dein Müt- ter- lein|tritt zur Tür her- ein,|||und den Kopf ich|dre- he,|
w: When thy mo- ther dear|oft- times en- ters here,|||and I turn to|greet her,|
 G2 G2 F2 F2 | E4 =D4 |[M:3/2] z12 |!pp! D2 G2 =A2 d2 A4 | D2 G2 =A2 d2 A4 | %18
w: ihr ent- ge- gen|se- he,||fällt auf ihr Ge- sicht|erst der Blick mir nicht,|
w: or I haste to|meet her,||not on her sad face|do I fix my gaze,|
"^Etwas bewegter"[Q:1/4=70]"^Un poco più mosso" z12 | z12 | z4!<(! F2 A2!<)! _d2!>(! c2 | %21
w: ||son- dern auf die|
w: ||first mine eyes seek|
 c4!>)! B4!p! !tenuto!A2 !tenuto!B2 | =B4 c4 A2 _B2 | %23
w: Stel- le, nä- her,|nä- her nach der|
w: low- er, toward the|thresh- old of the|
 =B4 c4"^steigernd""^animando"!<(! (_d2 e2)!<)! | %24
w: Schwel- le, dort, *|
w: door, there, where *|
!f![Q:1/4=72] !tenuto!f2 !tenuto!=e2 !tenuto!f2[Q:1/4=74] !tenuto!_e2 (e2 _d2) | %25
w: dort, wo wür- de dein *|
w: they in vain would  trace *|
[Q:1/4=77] !tenuto!_d2 !tenuto!c2 !tenuto!d2[Q:1/4=80] !tenuto!c2 (c2 B2) |[M:4/4] B2 A2!>(! G4- | %27
w: lieb Ge- sicht- chen sein, *|wenn du freu-|
w: thy sweet in- fant face, *|as in times|
 G2 A2 F2!>)! D2 |[M:3/2]!>(! G6 A2 F2 _D2 | (_D2!>)! C2)!<(! D2 C2 C2 =B,2!<)! | %30
w: * den- hel- le|trä- test mit her-|ein, _ trä- test mit her-|
w: _ of yore, when|fa- ther would re-|joice, * fa- ther would re-|
!f! G6[Q:1/4=76] !>!G2[Q:1/4=72]"^poco ritard." (!>!G2[Q:1/4=68] !>!F2 | %31
w: ein wie sonst, _|
w: joice, to hear _|
[Q:1/4=66]!>(! E2)[Q:1/4=64] D2[Q:1/4=63] (G,4[Q:1/4=60]"^.2" =A,2)!>)![Q:1/4=58]"^.8" =B,2[Q:1/4=61]"^.6" | %32
w: _ mein Töch- * ter-|
w: _ his child's * sweet|
[M:4/4]"^Wie zu Anfang"[Q:1/4=57]"^.4"[Q:1/4=52]"^Come al principio" C2[Q:1/4=56] z2 z4[Q:1/4=56]"^.7" | %33
w: lein.|
w: voice.|
 z8 | z8 | z8 | z8 | z8 | z8 |[M:3/2]!pp! G,2 C2 D2 G2 D4 | G,2 C2 D2 G2 D4 |[M:4/4] z8 | z8 | %43
w: ||||||Wenn dein Müt- ter- lein|tritt zur Tür her- ein,|||
w: ||||||When thy mo- ther dear|oft- times en- ters here.|||
!mp! G2 G2 F2 F2 | E4 D4 | G2 G2 F2 F2 | E4 =D4 |[M:3/2]!pp! D2 G2 =A2 d2 A4 | D2 G2 =A2 d2 A4 || %49
w: mit der Ker- ze|Schim- mer,|ist es mir, als|im- mer|kämst du mit her- ein,|husch- test hin- ter- drein,|
w: with the light comes|near me,|then, me- thinks, I|hear thee,|hear thine in- fant tread,|hear thine in- fant tread,|
"^Etwas bewegter""^innig   cordiale"[Q:1/4=70]"^Poco più moto"!<(! D2 F2!<)!!mf! (G2!>(! F2) (E2 D2)!>)! | %50
w: als wie sonst * ins _|
w: foot- steps patter- * ing _|
!p! D4 C4 z4 | z12 | z12 | z4 z4!p! (A2 _B2) | %54
w: Zim- mer!|||O _|
w: near me!|||O _|
 (=B4 c4)"^Proromperando in dolore\nMit ausbrechendem Schmerz"!<(! (_d2 e2)!<)! | %55
w: du, _ o _|
w: thou, _ life's _|
!mp! (f2 =e2 f2) _e2 e2 _d2 | (_d2 c2 d2 c2) (c2 B2) |[M:4/4]!<(! B2 A2!<)! G4- | %58
w: du, _ _ des Va- ters|Zel- * * * le, _|ach, zu schnel-|
w: boon, _ _ thy fa- ther's|trea- * * * sure, _|mo- ther's plea-|
!f! (G2 A2) F2!mf! D2 |[M:3/2] G6 A2 F2 _D2 | (_D2 C2 D2 C2) (C2 =B,2) |!<(! G8-!<)! G2 !>!F2 | %62
w: * * le, zu|schnell er- losch'- ner|Freu- * * * den- *|schein, _ er-|
w: * * sure, too|soon, thou light of|joy, _ _ _ art _|fled, _ thou,|
"^poco ritard."[Q:1/4=66] E2[Q:1/4=64] D2[Q:1/4=62] (G,4[Q:1/4=60] =A,2)[Q:1/4=58] =B,2 || %63
w: losch'- ner Freu- * den-|
w: light of joy, _ art|
"^Wie zu Anfang"[Q:1/4=52]"^\n""^Come al principio" C4 z4 z4 |[M:4/4] z8 | z8 | z8 | %67
w: schein!||||
w: fled!||||
[Q:1/4=56] z8[Q:1/4=54]"^.7"[Q:1/4=53]"^.3"[Q:1/4=52] | %68
w: |
w: |
[Q:1/4=50]"^.7" z8[Q:1/4=49]"^.3"[Q:1/4=48] |[Q:1/4=45]"^.3" !fermata!z8 |] %70
w: ||
w: ||
V:2
"^ausdrucksvoll""^espressivo" (G,C)(CD) D4- | (DG)(GD) E4- | (EGA_B cBAF) | (G4- GFED) | %4
 (FEFE) (EDED) | (G4!pp!!<(! GAB!<)!c) |!p!!>(! (=d4-!>)! d!pp!efg) | %7
[M:3/2]"_fliessender" (fe)(ed) (d4- defg) | (fe)(ed) (d4- defg) |[M:4/4] (fefg c'baf) | %10
 (g4- gfed) | (fefe eded) | (g4- gagf) | (defg !arpeggio!baf_d) | (_dcdc) (c=BcB) | %15
[M:3/2] g4-"_cresc." (gab=c'"_l.H." =d'4) |"_r.H." (de"_l.H."fg) (fe)(ed) d4- | %17
 (defg) (fe)(ed) d4 |"^espr." (D2 F2 [EG]2 [DF]2 [CE]2 D2) | (D4 C4)!<(! (E2 G2!<)! | %20
!>(! A2 G2 F2 E2!>)! _D2 F2) | c4 B4!pp! !tenuto![=FA]2 !tenuto![GB]2 | %22
 (=B4 c4) !tenuto!A2 !tenuto!_B2 | (=B4 c4)!<(! !tenuto!_d2 !tenuto!e2!<)! | %24
!p! (f2 =e2 f2 _e2 e2 _d2) | (_d2 c2 d2 c2 c2 B2) |[M:4/4] (F2 ^F2!>(! G4- | %27
 [EG]2 [^C=E]2 [DF]2 [=B,D]2)!>)! |[M:3/2]!>(! ([_EG]2 [D^F]2 [_D=F]2 [CE]2 [_A,_D]4)!>)! | %29
 (_D2 C2 D2 C2 C2 =B,2) | G8- (G2 F2 | _E2!>(! =D2[I:staff +1] G,4 =A,2!>)! =B,2) | %32
[M:4/4][I:staff -1] (G,C)(CD) D4- | (DG)(GD) (E4- | EGAB cBAF) | (G4- GFGF | FEFE EDED) | %37
 (G4- GABc |!<(! =d4- def!<)!g) |[M:3/2]!pp! (fe)(ed) (d4- defg) | (fe)(ed) (d4- defg) | %41
[M:4/4] (fefg c'baf) | (g4- gfed) | (fefe eded) | (g4- gafd) |!<(! (def!<)!g!>(! !>!baf!>)!_d) | %46
 (_dcdc) (c=BcB) |[M:3/2] (=defg) (fe)(ed) (=Ac)(cA) | (defg) (fe)(ed) (=Ac)(cA) || %49
!<(! (defg) ([ea]!<)!!mf!g)!>(!(gf) ([=Bf]e)(ed)!>)! | %50
!p! ([=Bd]4 c4)"_zart\ncon tenerezza" (c2 e2) | (a2 g2!<(! f2 a2 _d'2!<)! c'2) | %52
!mf!!>(! (!>!c'4 b4)!>)! !tenuto![=fa]2!p! !tenuto![_fb]2 | (=b4 c'4) !tenuto!a2 !tenuto!_b2 | %54
 (=b4 c'4) z4 | !>!E12 | (([B,_E]4!<(! [_D=E]4!<)! [=DF]4)) |[M:4/4]!f! (([_E^F]4 [=EG]4-)) | %58
!>(! ([EG]2 [^C=E]2!>)! [DF]2!mp! [=B,D]2) | %59
[M:3/2]!f! ([_EG]2 [D^F]2!>(! [_D=F]2 [C=E]2 [_C_E]2!>)!!mp! [A,_D]2) | x12 | %61
!>(! (E2 D2 _D2!>)! C2[I:staff +1] =B,2 C2) |[I:staff -1] x12 || %63
"^ausdrucksvoll""^espressivo"!p![I:staff +1] (G,C)(C[I:staff -1]D) z (C=B,=A,) (DG)(GD) | %64
[M:4/4] (E4 D4-) |!<(! (D2 G2)!<)!!mf!!>(! (G2 D2)!>)! |!p! (E6 A2) | %67
!mf!!>(! (A2!>)! E2)"^poco rit. morendo"!p! E4- | E4 D4- | !fermata!D8 |] %70
V:3
!pp!"_quasi pizz." G,4 z (C=B,=A, | =B,4-) B,(DCB, | C8-) | (C4 =B,4 | C4 G,4) | (E,4 A,,4) | %6
 (G,^F,G,=A,) G,4 |[M:3/2]"^più scorrevole" G,4- G,(C=B,=A, B,4) | G,4- G,(C=B,=A, B,4) | %9
[M:4/4] G,2 C,2 A,2 F,2 | E,2 C,2 D,2 G,,2 | C,2 G,,2 G,2 G,,2 | C,2 G,,2 =B,,2 G,,2 | %13
 C,2 G,,2 F,2 F,,2 | G,8 |[M:3/2] E,4 A,4 =D,4 |!pp! G,2 D,2 z2 D,2 z2 D,2 | %17
 G,2 D,2 z2 D,2 z2 D,2 |!p! B,4 =B,4 G,2 [F,=B,]2 | (([F,=B,]4 [E,_A,]4)) z4 | (=E,4 F,8) | %21
 G,8 F,2 _F,2 | (_F,4 E,4) z4 | _B,12 | =A,8 (A,2 B,2) | (B,4 _D8) |[M:4/4] G,,6- !>!^F,,2 | G,,8 | %28
[M:3/2] (G,,6 ^F,,2 =F,,4) | [G,,E,]8 [G,,,D,]4 |!f! (E,8 A,,4) | %31
 (G,2 A,2"_dim." D,2 E,2 F,2 D,2) |[M:4/4]!pp!"_quasi pizz." x4 z (C=B,=A, | =B,4) z (DCB, | %34
 C4-) C4 | E,2 C,2 D,2 G,,2 | C,2 G,,2 =B,,2 G,,2 | (E,4 A,,4) | (G,^F,G,=A,) G,4 | %39
[M:3/2] !>!G,4 !>!G,8 | !>!G,4 !>!G,8 |[M:4/4] C,2 E,2 A,2 F,2 | E,2 C,2 =B,,2 G,,2 | %43
 G2 G,2 F2 G,2 | E2 G,2 D2 G,2 | G2 G,2 F2 G,2 | E2 G,2 =D2 G,2 | %47
[M:3/2][K:treble]!pp! D8- (D=A)(AE) | D8- (D=A)(AE) || (D4 G4 F4) | (F4 E4) z4 | (=E4 F8) | %52
 !>!G8!>(! !tenuto!A2 !tenuto!G2!>)! |!pp! (_F4 E4) z4 | (=F4 =E4!pp! _E4) | %55
[K:bass] ([F,,,F,,]8 [_G,,,_G,,]4 | [=G,,,=G,,]12) |[M:4/4]!p! ([G,,,G,,]6 [^F,,,^F,,]2 | %58
 [G,,,G,,]8) |[M:3/2] (([G,,,G,,]8 [=F,,,=F,,]4)) | G,8-!<(! G,2 =B,2!<)! | (E,8 A,,4) | %62
"^poco ritard." (G,2 A,2 =D,2 E,2 F,2 D,2) ||!pp! G,4 G,8 |[M:4/4] (G,C)(CD) z (C=B,=A,) | =B,8 | %66
 (G,2 C6-) | C4!>(! z2 (C2 | =B,2!>)!!pp! =A,2!ppp! B,4-) | !fermata!B,8 |] %70
V:4
 .C,2 .G,,2 z2 .G,,2 | .G,2 .G,,2 z2 .G,,2 | E,2 C,2 F,2 C,2 | E,2 C,2 D,2 G,,2 | %4
 C,2 G,,2 =B,,2 G,,2 | x8 | =D,4 G,,4 |[M:3/2] C,2 G,,2 z4 z2 G,,2 | C,2 G,,2 z4 z2 G,,2 | %9
[M:4/4] x8 | x8 | x8 | x8 | x8 | x8 |[M:3/2] x12 | x12 | x12 | G,,8 z4 | A,,8 x4 | A,,12 | %21
 !arpeggio!A,,8 z4 | A,,8 x4 | (G,,8 _G,,4) | F,,8 _G,,4 | =G,,12 |[M:4/4] x8 | x8 |[M:3/2] x12 | %29
 G,12 | x12 | F,,4 G,,8 |[M:4/4] [G,,G,]8 | C,,2 G,,,2 z2 G,,,2 | E,,2 C,,2 F,,2 C,,2 | x8 | x8 | %37
 x8 | (=D,4 G,,4) |[M:3/2] C,2 G,,2 C,2 G,,2 z2 G,,2 | C,2 G,,2 C,2 G,,2 z2 G,,2 |[M:4/4] x8 | x8 | %43
 x8 | x8 | x8 | x8 |[M:3/2][K:treble] G,12 | G,12 || G,12 | A,8 x4 | A,12 | A,12 | A,8 x4 | %54
 [=G,B,]8 _G,4 |[K:bass] x12 | x12 |[M:4/4] x8 | x8 |[M:3/2] x12 | (E,8 =D,4) | x12 | %62
 (F,,4 G,,8) || ([C,,C,]2 G,,2 [C,,C,]2 G,,2 [C,,C,]2 G,,2) |[M:4/4] G,4 G,4 | [C,,C,]4 G,,4- | %66
 G,8 | G,8- | G,2 z2 z4 | !fermata!G,,,8 |] %70
V:5
 x8 | x8 | x8 | x8 | x8 | (D_DED) (D[I:staff +1]CB,A,) |[I:staff -1] C4- (C=B,[I:staff +1]=A,G,) | %7
[M:3/2][I:staff -1] G12 | G12 |[M:4/4] x4 c4- | (c4 G4-) | G8 | G8 | G4 A4 | G8 | %15
[M:3/2] (_cBc_d) (d=cBA !arpeggio!G^FG=A) | =AG[I:staff +1]!arpeggio!FE D4- DE[I:staff -1]FG | %17
 =AG[I:staff +1]!arpeggio!FE (D4- DCB,=A,) | x12 | x12 |[I:staff -1] _D12 | [_D_F]12 | A8 x4 | %23
 =E8 _E4 | E12- | (E4 =E4 F4) |[M:4/4] (=D4 E4-) | x8 |[M:3/2] x12 | x12 | (E2 D2 _D2 C2 =B,2 C2) | %31
 x12 |[M:4/4] x8 | x8 | x8 | (C4 =B,4 | C4[I:staff +1] G,4) | %37
[I:staff -1] (D_DED D[I:staff +1]CB,_A,) |[I:staff -1] (C4- C=B,=A,G,) |[M:3/2] x12 | x12 | %41
[M:4/4] x4 c4- | (c4 G4) | x8 | G8 | x8 | x8 |[M:3/2] !>!_B4 !>!=A4 d4 | B4 =A4 d4 || B4 =B4 x4 | %50
 x12 | (c4 _d8) | [_d_f]12 | a8 x4 | _B8 x4 | =A,8- (A,2 B,2) | x12 |[M:4/4] x8 | x8 |[M:3/2] x12 | %60
 x12 | x12 | x12 || x4 D4- =B,4 |[M:4/4] x8 | x8 | x8 | x8 | x8 | x8 |] %70
V:6
 x8 | x8 | x8 | x8 | x8 | x8 | x8 |[M:3/2] x12 | x12 |[M:4/4] x8 | x8 | x8 | x8 | x8 | x8 | %15
[M:3/2] x12 | x12 | x12 | x12 | x12 | x12 | x12 | (=D4 E4) x4 | x12 | x12 | x12 |[M:4/4] x8 | x8 | %28
[M:3/2] x12 | x12 | x12 | x12 |[M:4/4] x8 | x8 | x8 | x8 | x8 | x8 | x8 |[M:3/2] x12 | x12 | %41
[M:4/4] x8 | x8 | x8 | x8 | x8 | x8 |[M:3/2] x12 | x12 || x12 | x12 | x12 | x12 | (=d4 e4) z4 | %54
 x12 | x12 | x12 |[M:4/4] x8 | x8 |[M:3/2] x12 | x12 | x12 | x12 || x12 |[M:4/4] x8 | x8 | x8 | %67
 x8 | x8 | x8 |] %70
V:7
 x8 | x8 | x8 | x8 | x8 | x8 | x8 |[M:3/2] x12 | x12 |[M:4/4] x8 | x8 | x8 | x8 | x8 | x8 | %15
[M:3/2] x12 | x12 | x12 | x12 | x12 | x12 | x12 | x12 | x12 | x12 | x12 |[M:4/4] x8 | x8 | %28
[M:3/2] x12 | x12 | x12 | x12 |[M:4/4] C,,2 G,,,2 z2 G,,,2 | x8 | x8 | x8 | x8 | x8 | x8 | %39
[M:3/2] x12 | x12 |[M:4/4] x8 | x8 | x8 | x8 | x8 | x8 |[M:3/2][K:treble] x12 | x12 || x12 | x12 | %51
 x12 | x12 | x12 | x12 |[K:bass] x12 | x12 |[M:4/4] x8 | x8 |[M:3/2] x12 | G,,12 | x12 | x12 || %63
 x12 |[M:4/4] ([C,,C,]2 G,,2 [C,,C,]2 G,,2) | x8 | (G,,C,)(C,!<(!D,) (D,E,)(E,!<)!G,) | x8 | x8 | %69
 x8 |] %70

